X: 617
T: Liumei duohuen
%%abc-version 2.0
%%abcx-abcm2ps-target-version 5.9.1 (29 Sep 2008)
%%abc-creator hum2abc beta
%%abcx-conversion-date 2013/10/02 07:52:30
%%abc-edited-by Helmut Schaffrath
%%humdrum-veritas 3116040265
%%humdrum-veritas-data 438388069
%%continueall 1
%%barnumbers 0
L: 1/8
M: 2/4
K: F
G> G F G [I:setbarnb 1]| 
c2f2 | 
G G F E | 
C3z | 
F> G A A | 
G G F E | 
C/ A,/ C E/ G/ E | 
C4 |]  



